package/src/icons/notifications/info.svg

<svg width="24" height="24" viewBox="0 0 24 24" fill="none" xmlns="http://www.w3.org/2000/svg">
<path d="M21.08 8.58003V15.42C21.08 16.54 20.4799 17.58 19.5099 18.15L13.5699 21.58C12.5999 22.14 11.3999 22.14 10.4199 21.58L4.47992 18.15C3.50992 17.59 2.90991 16.55 2.90991 15.42V8.58003C2.90991 7.46003 3.50992 6.41999 4.47992 5.84999L10.4199 2.42C11.3899 1.86 12.5899 1.86 13.5699 2.42L19.5099 5.84999C20.4799 6.41999 21.08 7.45003 21.08 8.58003Z" stroke="#6271FF" stroke-width="1.5" stroke-linecap="round" stroke-linejoin="round"/>
<path d="M12 16.3L12 11.05" stroke="#6271FF" stroke-width="1.5" stroke-linecap="round" stroke-linejoin="round"/>
<path d="M12 7.85001L12 7.75001" stroke="#6271FF" stroke-width="2" stroke-linecap="round" stroke-linejoin="round"/>
</svg>

<svg width="24" height="24" fill="none" xmlns="http://www.w3.org/2000/svg">
  <path
    d="M21.08 8.58v6.84c0 1.12-.6 2.16-1.57 2.73l-5.94 3.43c-.97.56-2.17.56-3.15 0l-5.94-3.43a3.15 3.15 0 0 1-1.57-2.73V8.58c0-1.12.6-2.16 1.57-2.73l5.94-3.43c.97-.56 2.17-.56 3.15 0l5.94 3.43c.97.57 1.57 1.6 1.57 2.73ZM12 16.3v-5.25"
    stroke="var(--secondary-color-2)"
    stroke-width="1.5"
    stroke-linecap="round"
    stroke-linejoin="round"
  />
  <path
    d="M12 7.85v-.1"
    stroke="var(--secondary-color-2)"
    stroke-width="2"
    stroke-linecap="round"
    stroke-linejoin="round"
  />
</svg>
